dist/assets/images/card/icon-10.svg

<svg width="125" height="87" viewBox="0 0 125 87" fill="none" xmlns="http://www.w3.org/2000/svg">
<path d="M123.813 1H1V85.587H123.813V1Z" stroke="#DF0112" stroke-miterlimit="10"/>
<path d="M61.3942 14.051L57.6162 18.354L72.1672 18.378L88.1072 37.511V71.989" stroke="#0000BD"/>
<path d="M60.4473 72.0511L64.2303 65.446L68.3242 72.065" stroke="#0000BD"/>
<path d="M36 14V72.039" stroke="#0000BD"/>
<path fill-rule="evenodd" clip-rule="evenodd" d="M68.9512 38.804C67.2632 37.116 65.3592 36.0339 63.2402 35.4709L60.7732 44.687C62.5632 45.099 63.6552 47.0309 63.0452 48.8059C62.4992 50.3999 61.0942 51.3 59.0722 50.839L56.5762 60.2199C57.6582 60.4799 58.7822 60.6089 59.9502 60.6089C63.4542 60.6089 66.4402 59.3549 68.9502 56.8879C71.4592 54.3779 72.7142 51.3509 72.7142 47.8449C72.7142 44.3389 71.4602 41.313 68.9512 38.804Z" fill="#DF0112"/>
<path d="M56.5051 60.1609L59.1141 50.8229C60.8291 51.1839 62.4521 50.4439 62.9831 48.7449C63.5141 47.0439 62.6301 45.2219 60.7611 44.5989L63.2401 35.4729" stroke="#0000BD" stroke-width="0.4232"/>
<path d="M59.8931 45.477C61.1471 45.477 62.1631 46.4929 62.1631 47.7469C62.1631 48.9989 61.1471 50.0169 59.8931 50.0169C58.6391 50.0169 57.6221 48.9989 57.6221 47.7469C57.6231 46.4929 58.6401 45.477 59.8931 45.477ZM59.8931 34.986C66.9411 34.986 72.6521 40.6989 72.6521 47.7469C72.6521 54.7939 66.9411 60.507 59.8931 60.507C52.8461 60.507 47.1331 54.7939 47.1331 47.7469C47.1341 40.6989 52.8471 34.986 59.8931 34.986ZM59.8931 32.9399C68.0711 32.9399 74.6981 39.5689 74.6981 47.7459C74.6981 55.9219 68.0711 62.551 59.8931 62.551C51.7171 62.551 45.0881 55.9219 45.0881 47.7459C45.0891 39.5689 51.7181 32.9399 59.8931 32.9399Z" stroke="#0000BD" stroke-miterlimit="22.9256"/>
<path d="M56.0251 32.1231L36.03 24.4121" stroke="#0000BD"/>
<path d="M53.3501 73.041L54.7461 66.291H56.3671L57.7611 73.041H56.6711L56.3771 71.512H54.7371L54.4381 73.041H53.3501ZM54.9271 70.524H56.1891L55.5561 67.272L54.9271 70.524Z" fill="#0000BD"/>
<path d="M65.1282 28.241C71.3102 28.374 73.9232 30.526 75.9992 34.508" stroke="#DF0112"/>
<path d="M78.196 33.8631L77.3875 37.8145L73.904 35.8218L78.196 33.8631Z" stroke="#DF0112"/>
</svg>

<svg width="125" height="87" fill="none" xmlns="http://www.w3.org/2000/svg"><path d="M123.813 1H1v84.587h122.813V1z" stroke="#DF0112" stroke-miterlimit="10"/><path d="M61.394 14.051l-3.778 4.303 14.551.024 15.94 19.133v34.478m-27.66.062l3.783-6.605 4.094 6.619M36 14v58.039" stroke="#0000BD"/><path fill-rule="evenodd" clip-rule="evenodd" d="M68.951 38.804c-1.688-1.688-3.592-2.77-5.71-3.333l-2.468 9.216c1.79.412 2.882 2.344 2.272 4.119-.546 1.594-1.95 2.494-3.973 2.033l-2.496 9.38c1.082.26 2.206.39 3.374.39 3.504 0 6.49-1.254 9-3.721 2.51-2.51 3.764-5.537 3.764-9.043 0-3.506-1.254-6.532-3.763-9.041z" fill="#DF0112"/><path d="M56.505 60.16l2.61-9.337c1.714.36 3.337-.38 3.868-2.078.531-1.701-.353-3.523-2.222-4.146l2.48-9.126" stroke="#0000BD" stroke-width=".423"/><path d="M59.893 45.477a2.27 2.27 0 11.001 4.539 2.27 2.27 0 010-4.539zm0-10.491c7.048 0 12.76 5.713 12.76 12.76 0 7.048-5.712 12.761-12.76 12.761-7.047 0-12.76-5.713-12.76-12.76.001-7.048 5.714-12.761 12.76-12.761zm0-2.046c8.178 0 14.805 6.629 14.805 14.806 0 8.176-6.627 14.805-14.805 14.805-8.176 0-14.805-6.63-14.805-14.805.001-8.177 6.63-14.806 14.805-14.806z" stroke="#0000BD" stroke-miterlimit="22.926"/><path d="M56.025 32.123l-19.995-7.71" stroke="#0000BD"/><path d="M53.35 73.041l1.396-6.75h1.621l1.394 6.75h-1.09l-.294-1.529h-1.64l-.299 1.529H53.35zm1.577-2.517h1.262l-.633-3.252-.629 3.252z" fill="#0000BD"/><path d="M65.128 28.241c6.182.133 8.795 2.285 10.871 6.267m2.197-.645l-.808 3.952-3.484-1.993 4.292-1.959z" stroke="#DF0112"/></svg>
